X:357
T:B357-  One Night When All the Village Slept, or Martellus
S:(3rd/3)
Q:1/4=120
L:1/4
M:C|
K:Em
F|GEBe|d3/2c/BG|(A/4B/4c/)B(A/G/) (F/E/)|^D3F|\
GEBe|^d3/2e/f^c|ded3/2^c/|B3||B|\
d3/2e/dB|c3/2d/eB|c3/2B/A3/2G/|F3f|\
gf/e/^d^c/B/|gf/e/^d3/2e/|BA/G/AB|e3|]

